X: 41974
T: Wallop The Spot
R: jig
M: 6/8
K: Edorian
|:~F3 DFA|BAF ~d3|~F3 DFA|{Bc}BAF AFE|
~F3 DFA|BAF ~d3|fed edB|{Bc}BAF AFE:|
|:Bcd ecA|fed ecA|Bcd ec/B/A|BAF AFE|
Bcd eca|fed efg|{ab}agf edB|BAF AFE:|
|:DFA ~d3|edc dAF|DFA d2A|BAF AFE|
DFA ~d3|edc d2e|fed edB|BAF AFE:|
|:FEF DFA|BAF dAG|FEF DFA|B/B/AF AFE|
FEF DFA|BAF dde|fed edB|B/B/AF AFE:|
|:Bcd ec^e|fed ecA|Bcd ec/B/A|BAF AFE|
Bcd ec^e|fed efg|agf edB|BAF AFE:|
|:DFA d/d/d/d|edc dAF|DFA d/d/d/A|BAF AFE|
DFA d/d/d/d|edc d/d/d/e|fed edB|BAF AFE:|
|:~e3 dBA|~g afd|e/f/g/e dBA|BAB {GA}GED|
~e3 dBA|~g afd|e/f/g/e dBA|Bed e2d:|
|:egb egb|egb bge|dfa dfa|dfa agf|
g2g ~a3|bge ~g3|age dBA|Bed e2d:|

